16-manifest/assets/images/instagram.svg

<svg width="24" height="24" viewBox="0 0 24 24" xmlns="http://www.w3.org/2000/svg">
<path d="M12.0029 5.8467C8.59691 5.8467 5.84962 8.594 5.84962 12C5.84962 15.406 8.59691 18.1533 12.0029 18.1533C15.4089 18.1533 18.1562 15.406 18.1562 12C18.1562 8.594 15.4089 5.8467 12.0029 5.8467ZM12.0029 16.0004C9.80187 16.0004 8.00247 14.2064 8.00247 12C8.00247 9.7936 9.79651 7.99955 12.0029 7.99955C14.2093 7.99955 16.0034 9.7936 16.0034 12C16.0034 14.2064 14.204 16.0004 12.0029 16.0004ZM19.8431 5.595C19.8431 6.39295 19.2005 7.03024 18.4079 7.03024C17.61 7.03024 16.9727 6.38759 16.9727 5.595C16.9727 4.80241 17.6153 4.15977 18.4079 4.15977C19.2005 4.15977 19.8431 4.80241 19.8431 5.595ZM23.9186 7.05166C23.8275 5.12909 23.3884 3.42608 21.9799 2.02298C20.5768 0.619882 18.8738 0.180743 16.9513 0.0843468C14.9698 -0.0281156 9.03069 -0.0281156 7.04922 0.0843468C5.132 0.175388 3.429 0.614526 2.02054 2.01763C0.612085 3.42073 0.178302 5.12373 0.0819054 7.0463C-0.030557 9.02778 -0.030557 14.9669 0.0819054 16.9483C0.172946 18.8709 0.612085 20.5739 2.02054 21.977C3.429 23.3801 5.12665 23.8193 7.04922 23.9157C9.03069 24.0281 14.9698 24.0281 16.9513 23.9157C18.8738 23.8246 20.5768 23.3855 21.9799 21.977C23.383 20.5739 23.8222 18.8709 23.9186 16.9483C24.031 14.9669 24.031 9.03314 23.9186 7.05166ZM21.3587 19.0744C20.941 20.1241 20.1323 20.9327 19.0773 21.3558C17.4975 21.9824 13.7488 21.8378 12.0029 21.8378C10.2571 21.8378 6.50297 21.977 4.9285 21.3558C3.87885 20.9381 3.07019 20.1294 2.64712 19.0744C2.02054 17.4946 2.16514 13.7458 2.16514 12C2.16514 10.2542 2.0259 6.50006 2.64712 4.92558C3.06484 3.87593 3.87349 3.06728 4.9285 2.6442C6.50833 2.01763 10.2571 2.16222 12.0029 2.16222C13.7488 2.16222 17.5029 2.02298 19.0773 2.6442C20.127 3.06192 20.9356 3.87058 21.3587 4.92558C21.9853 6.50541 21.8407 10.2542 21.8407 12C21.8407 13.7458 21.9853 17.4999 21.3587 19.0744Z"/>
</svg>

<svg xmlns="http://www.w3.org/2000/svg" width="24" height="24"><path d="M12.003 5.847A6.144 6.144 0 0 0 5.85 12a6.144 6.144 0 0 0 6.153 6.153A6.144 6.144 0 0 0 18.156 12a6.144 6.144 0 0 0-6.153-6.153Zm0 10.153c-2.201 0-4-1.794-4-4s1.794-4 4-4 4 1.794 4 4-1.799 4-4 4Zm7.84-10.405c0 .798-.642 1.435-1.435 1.435a1.435 1.435 0 1 1 1.435-1.435Zm4.076 1.457c-.091-1.923-.53-3.626-1.94-5.029C20.578.62 18.875.181 16.952.084c-1.981-.112-7.92-.112-9.902 0-1.917.091-3.62.53-5.028 1.934C.612 3.42.178 5.124.08 7.046c-.112 1.982-.112 7.92 0 9.902.092 1.923.531 3.626 1.94 5.029 1.408 1.403 3.106 1.842 5.028 1.939 1.982.112 7.92.112 9.902 0 1.923-.091 3.626-.53 5.029-1.939 1.403-1.403 1.842-3.106 1.939-5.029.112-1.981.112-7.915 0-9.896Zm-2.56 12.022a4.05 4.05 0 0 1-2.282 2.282c-1.58.626-5.328.482-7.074.482-1.746 0-5.5.139-7.075-.482a4.05 4.05 0 0 1-2.28-2.282c-.627-1.58-.483-5.328-.483-7.074 0-1.746-.14-5.5.482-7.074a4.05 4.05 0 0 1 2.281-2.282c1.58-.626 5.33-.482 7.075-.482 1.746 0 5.5-.139 7.074.482a4.05 4.05 0 0 1 2.282 2.282c.626 1.58.482 5.328.482 7.074 0 1.746.144 5.5-.482 7.074Z"/></svg>
